assets/img/icons/clock.svg

<svg fill="none" height="64" viewBox="0 0 64 64" width="64" xmlns="http://www.w3.org/2000/svg"><circle cx="32" cy="32" fill="#fff" r="27" stroke="#000" stroke-width="2"/><path d="m32 54c12.1503 0 22-9.8497 22-22s-9.8497-22-22-22-22 9.8497-22 22 9.8497 22 22 22z" fill="#c4f0f5"/><path d="m32 35c1.6569 0 3-1.3431 3-3s-1.3431-3-3-3-3 1.3431-3 3 1.3431 3 3 3z" fill="#000"/><g stroke="#000" stroke-width="2"><path d="m33.2628 31.3243 11-12"/><path d="m32.2631 31.9648-11 3"/></g></svg>

<svg width="64" height="64" viewBox="0 0 64 64" fill="none" xmlns="http://www.w3.org/2000/svg">
<circle cx="32" cy="32" r="27" fill="white" stroke="black" stroke-width="2"/>
<path d="M32 54C44.1503 54 54 44.1503 54 32C54 19.8497 44.1503 10 32 10C19.8497 10 10 19.8497 10 32C10 44.1503 19.8497 54 32 54Z" fill="#C4F0F5"/>
<path d="M32 35C33.6569 35 35 33.6569 35 32C35 30.3431 33.6569 29 32 29C30.3431 29 29 30.3431 29 32C29 33.6569 30.3431 35 32 35Z" fill="black"/>
<line x1="33.2628" y1="31.3243" x2="44.2628" y2="19.3243" stroke="black" stroke-width="2"/>
<line x1="32.2631" y1="31.9648" x2="21.2631" y2="34.9648" stroke="black" stroke-width="2"/>
</svg>
